X: 223
T: Batan Gün Kana Benziyor
C: Sadettin Kaynak
O: Turkey
F: http://compmusic.upf.edu/node/140
N: muhayyer--sarki--curcuna--batan_gun--sadettin_kaynak
N: makam= muhayyer
N: form= sarki
N: usul= curcuna = 10/8
M: 10/8
L: 1/16
K: C _2/4B ^3/4f  
Q: 1/4=180
%%MIDI tuningsystem comma53
a4 a2a4a4g2 f2e2  | d4 d2d4d4d2 e2f2  | \
w:  ARANAĞME  |   | 
g4 g2g4g4=f2 e2d2  | 
w:   | 
c4 c2c4c4B2 c2d2  | e4 e2e4e4d2 c2B2  | \
w:   |   | 
A4 A2A4A4c2 B2d2  | 
w:   | 
A4 A2A4c2 B2A4G2  | A3B c2d2 e2f2 g2ab agfg  | \
w:   |   | 
a4 a2a4a4g2 f2e2  | 
w:  ARANAĞME  | 
d4 d2d4d4d2 e2f2  | g4 g2g4g4=f2 e2d2  | \
w:   |   | 
c4 c2c4c4B2 c2d2  | 
w:   | 
e4 e2e4e4d2 c2B2  | A4 A2A4A4c2 B2d2  | \
w:   |   | 
A4 A2A4c2 B2A4G2  | 
w:   | 
A3B c2d2 e2f2 g2ab agfg  | a4 f2g4a4a6  | \
w:   |  *  Ba tan  gün  ka  | 
a6a4a2 {c'}baa4AG  | 
w:  na  ben zi *  *  *  yor   SAZ  | 
A4 f2g2 a2a4a4g2  | a2b2 {b}g4 f2g2 a2{a}f4e2  | \
w:  *  Ya ra *  lı  câ  |  na  *  *  ben *  zi *  *  yor    | 
g4 e2e4e2 d2d2 {f}e2d2  | 
w:  Es *  me rim  *  vay   | 
d4 d2d4c2 B2A3gfg  | a4 f2g4a4a6  | a6a4a2 {c'}baa4AG  | 
w:  vay   *  *  SAZ  |  *  Ba tan  gün  ka  |  na  ben zi *  *  *  yor   SAZ  | 
A4 f2g2 a2a4a4g2  | a2b2 {b}g4 f2g2 a2{a}f4e2  | \
w:  *  Ya ra *  lı  câ  |  na  *  *  ben *  zi *  *  yor    | 
g4 e2e4e2 d2d2 {f}e2d2  | 
w:  Es *  me rim  *  vay   | 
d4 d2d4c2 d2e4z2  | e6e4e2 d2_3/4e2 d2c2  | \
w:  vay   *  *  SAZ  |  Ah  e di *  yor   | 
d4 c2_3/4e2 d2c2 B2c3d=ef  | 
w:  bir  *  gül  *  i *  çin   SAZ  | 
g4 f2g4g2 f2g2 e2d2  | d4 B2c2 B2c2 d2{d}B4A2  | \
w:  *  Şu  bül bül  *  ba  |  na  *  ben *  zi *  *  yor    | 
d6d4d2 e2{e}c4B2  | 
w:  Vay  be nim  *  *  ga  | 
c4 {B}d2B2 A2A4e6  | e6e4e2 d2_3/4e2 d2c2  | \
w:  rip  *  gön *  *  lüm   SAZ  |  Ah  e di *  yor   | 
d4 c2_3/4e2 d2c2 B2c3d=ef  | 
w:  bir  *  gül  *  i *  çin   SAZ  | 
g4 f2g4g2 f2g2 e2d2  | d4 B2c2 B2c2 d2{d}B4A2  | \
w:  *  Şu  bül bül  *  ba  |  na  *  ben *  zi *  *  yor    | 
d6d4d2 e2{e}c4B2  | 
w:  Vay  be nim  *  *  ga  | 
c4 {B}d2B2 A2A4Bc defg  | a4 a2a4a4g2 f2e2  | \
w:  rip  *  gön *  *  lüm   SAZ  |  ARANAĞME  | 
d4 d2d4d4d2 e2f2  | 
w:   | 
g4 g2g4g4=f2 e2d2  | c4 c2c4c4B2 c2d2  | \
w:   |   | 
e4 e2e4e4d2 c2B2  | 
w:   | 
A4 A2A4A4c2 B2d2  | A4 A2A4c2 B2A4G2  | \
w:   |   | 
A3B c2d2 e2f2 g2ab agfg  | 
w:   | 
a4 a2a4a4g2 f2e2  | d4 d2d4d4d2 e2f2  | \
w:  ARANAĞME  |   | 
g4 g2g4g4=f2 e2d2  | 
w:   | 
c4 c2c4c4B2 c2d2  | e4 e2e4e4d2 c2B2  | \
w:   |   | 
A4 A2A4A4c2 B2d2  | 
w:   | 
A4 A2A4c2 B2A4G2  | A3B c2d2 e2f2 g2ab agfg  | \
w:   |   | 
a4 f2g4a4a6  | 
w:  *  Ba tan  gün  ka  | 
a6a4a2 {c'}baa4AG  | A4 f2g2 a2a4a4g2  | \
w:  na  ben zi *  *  *  yor   SAZ  |  *  Ya ra *  lı  câ  | 
a2b2 {b}g4 f2g2 a2{a}f4e2  | 
w:  na  *  *  ben *  zi *  *  yor    | 
g4 e2e4e2 d2d2 {f}e2d2  | d4 d2d4c2 B2A3gfg  | \
w:  Es *  me rim  *  vay   |  vay   *  *  SAZ  | 
a4 f2g4a4a6  | 
w:  *  Ba tan  gün  ka  | 
a6a4a2 {c'}baa4AG  | A4 f2g2 a2a4a4g2  | \
w:  na  ben zi *  *  *  yor   SAZ  |  *  Ya ra *  lı  câ  | 
a2b2 {b}g4 f2g2 a2{a}f4e2  | 
w:  na  *  *  ben *  zi *  *  yor    | 
g4 e2e4e2 d2d2 {f}e2d2  | d4 d2d4c2 d2e4z2  | \
w:  Es *  me rim  *  vay   |  vay   *  *  SAZ  | 
e6e4e2 d2_3/4e2 d2c2  | 
w:  Ah  e di *  yor   | 
d4 c2_3/4e2 d2c2 B2c3d=ef  | g4 f2g4g2 f2g2 e2d2  | \
w:  bir  *  gül  *  i *  çin   SAZ  |  *  Şu  bül bül  *  ba  | 
d4 B2c2 B2c2 d2{d}B4A2  | 
w:  na  *  ben *  zi *  *  yor    | 
d6d4d2 e2{e}c4B2  | c4 {B}d2B2 A2A4e6  | \
w:  Vay  be nim  *  *  ga  |  rip  *  gön *  *  lüm   SAZ  | 
e6e4e2 d2_3/4e2 d2c2  | d4 c2_3/4e2 d2c2 B2c3d=ef  | 
w:  Ah  e di *  yor   |  bir  *  gül  *  i *  çin   SAZ  | 
g4 f2g4g2 f2g2 e2d2  | d4 B2c2 B2c2 d2{d}B4A2  | \
w:  *  Şu  bül bül  *  ba  |  na  *  ben *  zi *  *  yor    | 
d6d4d2 e2{e}c4B2  | 
w:  Vay  be nim  *  *  ga  | 
c4 {B}d2B2 A2A8z2  | |


